X: 7861
T: Compass Rose
R: reel
M: 4/4
K: Dmajor
|:DFAc d2AG|FGA(E E)AcA|DAcA cdAB|BAAG GFFE|
DFAc d2AG|FGA(E E)DDE|A,B,B(A A)A,B,A|BAAF DddD:|
|:A,B,B(A A)A,B,A|BAAF DAcA|CDB(A A)CDA|BAAF EEED|
G,A,B(A A) CDA|BAAF DAcA|cdAB BAAG|GFFE EDDE:|

